.local/share/icons/Gruvbox-Plus-Dark/panel/16/user-status-new.svg

<svg width="16" height="16" version="1.1" xmlns="http://www.w3.org/2000/svg">
  <defs>
    <style id="current-color-scheme" type="text/css">.ColorScheme-Text { color:#ebdbb2; } .ColorScheme-Highlight { color:#458588; } .ColorScheme-NeutralText { color:#fe8019; } .ColorScheme-PositiveText { color:#689d6a; } .ColorScheme-NegativeText { color:#fb4934; }</style>
  </defs>
  <path class="ColorScheme-Text" d="m3 2s-2 0-2 2v5.5a2.5 2.5 0 0 1 2.5-2.5 2.5 2.5 0 0 1 2.5 2.5 2.5 2.5 0 0 1-2.5 2.5h4.5l2 3 2-3h1c1.11 0 2-0.89 2-2v-6c0-2-1.971-2-1.971-2z" fill="currentColor"/>
  <circle class="ColorScheme-Highlight" cx="3.5" cy="9.5" r="1.5" fill="currentColor"/>
</svg>

<svg xmlns="http://www.w3.org/2000/svg" width="16" height="16" version="1.1">
 <defs>
  <style id="current-color-scheme" type="text/css">
   .ColorScheme-Text { color:#ebdbb2; } .ColorScheme-Highlight { color:#458588; }
  </style>
 </defs>
 <path style="fill:currentColor" class="ColorScheme-Text" d="M 3,2 C 3,2 1,2 1,4 V 9.5 A 2.5,2.5 0 0 1 3.5,7 2.5,2.5 0 0 1 6,9.5 2.5,2.5 0 0 1 3.5,12 H 8 L 10,15 12,12 H 13 C 14.11,12 15,11.11 15,10 V 9 7 4 C 15,2 13.029,2 13.029,2 Z"/>
 <circle style="fill:currentColor" class="ColorScheme-Highlight" cx="3.5" cy="9.5" r="1.5"/>
</svg>
